build/service/GreaterOrEqualSolid.svg

<svg xmlns="http://www.w3.org/2000/svg" fill="none" viewBox="0 0 24 24" focusable="false"><path d="M0 0H24V24H0z"/><path fill="#74767B" fill-rule="evenodd" d="M21 12C21 7.02944 16.9706 3 12 3C7.02944 3 3 7.02944 3 12C3 16.9706 7.02944 21 12 21C16.9706 21 21 16.9706 21 12ZM9.16813 14.4523C9.29812 14.5923 9.46812 14.6623 9.64812 14.6623C9.80812 14.6623 9.95813 14.6123 10.0881 14.4923L13.0779 11.8045C13.3879 11.5245 13.3879 11.0445 13.0779 10.7645L10.0923 8.16817C9.82228 7.92817 9.41228 7.94818 9.17228 8.20818C8.93228 8.47818 8.94228 8.88818 9.21228 9.12818L11.7079 11.2845L9.20813 13.5323C8.94812 13.7723 8.92813 14.1823 9.16813 14.4523ZM13.9953 12.6737C14.2621 12.4335 14.6731 12.455 14.9133 12.7218C15.1535 12.9886 15.1319 13.3995 14.8651 13.6398L11.7897 16.4089C11.5229 16.6491 11.1119 16.6276 10.8717 16.3608C10.6315 16.094 10.653 15.6831 10.9198 15.4428L13.9953 12.6737Z"/></svg>

<svg xmlns="http://www.w3.org/2000/svg" fill="none" viewBox="0 0 24 24" focusable="false"><path fill="#74767B" fill-rule="evenodd" d="M21 12c0-4.98-4.03-9-9-9-4.98 0-9 4.02-9 9 0 4.97 4.02 9 9 9a9 9 0 0 0 9-9M9.16 14.45c.13.14.3.21.48.21.16 0 .31-.05.44-.17l2.99-2.69c.31-.28.31-.76 0-1.04l-2.98-2.6a.66.66 0 0 0-.92.04.65.65 0 0 0 .04.92l2.49 2.16-2.5 2.25c-.26.24-.28.65-.04.92m4.83-1.78a.65.65 0 0 1 .92.05c.24.26.22.67-.05.91l-3.08 2.77c-.26.24-.67.22-.91-.04a.66.66 0 0 1 .04-.92z"/></svg>
